;Generated by Cura LulzBot Edition GCodeWriter Version: 3.6.37
;FLAVOR:Marlin
;TIME:3844
;Filament used: 1.81016m
;Layer height: 0.28
;Generated with Cura_SteamEngine 3.6.37-macos
M82 ;absolute extrusion mode
;This G-Code has been generated specifically for the LulzBot Mini 2 with SE 0.5mm Tool Head
;
;The following lines can be uncommented for printer specific fine tuning
;More information can be found at https://marlinfw.org/meta/gcode/
;
;M92 E420                 ;Set Axis Steps-per-unit
;M301 P21.0 I1.78 D61.93  ;Set Hotend PID
;M906 E960                ;TMC Motor Current
;
M73 P0                  ; clear GLCD progress bar
M75 					; Start GLCD Print Timer
G26 					; clear potential 'probe fail' condition
M107 					; disable fans
M420 S0                 ; disable leveling matrix
G90 					; absolute positioning
M82 					; set extruder to absolute mode
G92 E0 					; set extruder position to 0
M140 S75.0 ; start bed heating up
G28 					; home all axes
G0 X0 Y187 Z156 F200 			; move away from endstops
M117 Mini 2 Wiping...			; progress indicator message on LCD
M109 R170 	; soften filament before retraction
G1 E-15 F75 				; retract filament
M109 R170                  ; wait for extruder to reach wiping temp
;M206 X0 Y0 Z0              ; uncomment to adjust wipe position (+X ~ nozzle moves left)(+Y ~ nozzle moves forward)(+Z ~ nozzle moves down)
G12                         ; wiping sequence
M206 X0 Y0 Z0               ; reseting stock nozzle position ### CAUTION: changing this line can affect print quality ###
G28 X0 Y0				; home X and Y
M109 R170	; wait for extruder to reach probe temp
M204 S300				; set probing acceleration
G29					; start auto-leveling sequence
M420 S1                     ; enable leveling matrix
M425 Z			     		; use measured Z backlash for compensation
M425 Z F0		     		; turn off measured Z backlash compensation. (if activated in the quality settings, this command will automatically be ignored)
M204 S2000				; restore standard acceleration
G1 X5 Y15 Z10 F5000			; move up off last probe point
G4 S1					; pause
M400					; wait for moves to finish
M117 Heating...				; progress indicator message on LCD
M109 R235 ; wait for extruder to reach initial printing temp
M190 R75.0 ; wait for bed to reach printing temp
G1 Z2 E0 F75				; prime tiny bit of filament into the nozzle
M117 Mini 2 Printing...		; progress indicator message on LCD

M221 S100 T0
G92 E0
G1 F600 E-1
;LAYER_COUNT:47
;LAYER:0
M107
G0 F1200 X51.619 Y51.56 Z0.38
;TYPE:SKIRT
G1 F600 E0
G1 X52.15 Y51.093 E0.02106
G1 X52.729 Y50.689 E0.04209
G1 X53.351 Y50.352 E0.06316
G1 X54.007 Y50.088 E0.08422
G1 X54.688 Y49.9 E0.10526
G1 X55.386 Y49.79 E0.12631
G1 X56.009 Y49.759 E0.14488
G1 X105.991 Y49.76 E1.63352
G1 X106.697 Y49.8 E1.65458
G1 X107.393 Y49.919 E1.67561
G1 X108.072 Y50.117 E1.69667
G1 X108.724 Y50.389 E1.71771
G1 X109.341 Y50.734 E1.73877
G1 X109.916 Y51.146 E1.75984
G1 X110.44 Y51.62 E1.78088
G1 X110.907 Y52.151 E1.80194
G1 X111.311 Y52.73 E1.82297
G1 X111.648 Y53.352 E1.84404
G1 X111.912 Y54.008 E1.8651
G1 X112.1 Y54.689 E1.88614
G1 X112.21 Y55.387 E1.90718
G1 X112.241 Y56.01 E1.92576
G1 X112.241 Y105.991 E3.41437
G1 X112.201 Y106.697 E3.43543
G1 X112.082 Y107.393 E3.45646
G1 X111.884 Y108.072 E3.47752
G1 X111.612 Y108.724 E3.49856
G1 X111.267 Y109.341 E3.51962
G1 X110.855 Y109.916 E3.54068
G1 X110.381 Y110.44 E3.56173
G1 X109.85 Y110.907 E3.58279
G1 X109.271 Y111.311 E3.60382
G1 X108.649 Y111.648 E3.62489
G1 X107.993 Y111.912 E3.64595
G1 X107.312 Y112.1 E3.66699
G1 X106.614 Y112.21 E3.68803
G1 X105.991 Y112.241 E3.70661
G1 X56.009 Y112.241 E5.19525
G1 X55.303 Y112.201 E5.21631
G1 X54.607 Y112.082 E5.23734
G1 X53.928 Y111.884 E5.2584
G1 X53.276 Y111.612 E5.27944
G1 X52.659 Y111.267 E5.3005
G1 X52.084 Y110.855 E5.32156
G1 X51.56 Y110.381 E5.34261
G1 X51.093 Y109.85 E5.36367
G1 X50.689 Y109.271 E5.3847
G1 X50.352 Y108.649 E5.40577
G1 X50.088 Y107.993 E5.42683
G1 X49.9 Y107.312 E5.44787
G1 X49.79 Y106.614 E5.46891
G1 X49.759 Y105.991 E5.48749
G1 X49.759 Y56.009 E6.97612
G1 X49.799 Y55.303 E6.99719
G1 X49.918 Y54.607 E7.01822
G1 X50.116 Y53.928 E7.03928
G1 X50.388 Y53.276 E7.06032
G1 X50.733 Y52.659 E7.08138
G1 X51.145 Y52.084 E7.10244
G1 X51.619 Y51.56 E7.12349
G0 F1200 X52.111 Y51.782
G1 F600 X52.635 Y51.353 E7.14366
G1 X53.207 Y50.988 E7.16387
G1 X53.817 Y50.693 E7.18405
G1 X54.458 Y50.472 E7.20424
G1 X55.12 Y50.328 E7.22442
G1 X56.009 Y50.259 E7.25098
G1 X105.991 Y50.26 E8.73961
G1 X106.668 Y50.3 E8.75981
G1 X107.335 Y50.419 E8.77999
G1 X107.984 Y50.616 E8.80019
G1 X108.605 Y50.888 E8.82038
G1 X109.189 Y51.232 E8.84057
G1 X109.73 Y51.641 E8.86076
G1 X110.218 Y52.112 E8.88096
G1 X110.647 Y52.636 E8.90113
G1 X111.012 Y53.208 E8.92134
G1 X111.307 Y53.818 E8.94152
G1 X111.528 Y54.459 E8.96172
G1 X111.672 Y55.122 E8.98192
G1 X111.741 Y56.01 E9.00845
G1 X111.741 Y105.991 E10.49705
G1 X111.701 Y106.668 E10.51725
G1 X111.582 Y107.335 E10.53743
G1 X111.385 Y107.984 E10.55763
G1 X111.113 Y108.605 E10.57782
G1 X110.769 Y109.189 E10.59801
G1 X110.36 Y109.73 E10.61821
G1 X109.889 Y110.218 E10.63841
G1 X109.365 Y110.647 E10.65858
G1 X108.793 Y111.012 E10.67879
G1 X108.183 Y111.307 E10.69897
G1 X107.542 Y111.528 E10.71916
G1 X106.88 Y111.672 E10.73934
G1 X105.991 Y111.741 E10.7659
G1 X56.009 Y111.741 E12.25453
G1 X55.332 Y111.701 E12.27473
G1 X54.665 Y111.582 E12.29491
G1 X54.016 Y111.385 E12.31511
G1 X53.395 Y111.113 E12.3353
G1 X52.811 Y110.769 E12.35549
G1 X52.27 Y110.36 E12.37569
G1 X51.782 Y109.889 E12.39589
G1 X51.353 Y109.365 E12.41606
G1 X50.988 Y108.793 E12.43627
G1 X50.693 Y108.183 E12.45645
G1 X50.472 Y107.542 E12.47664
G1 X50.328 Y106.88 E12.49682
G1 X50.259 Y105.991 E12.52338
G1 X50.259 Y56.009 E14.01201
G1 X50.299 Y55.332 E14.03221
G1 X50.418 Y54.665 E14.05239
G1 X50.615 Y54.016 E14.07259
G1 X50.887 Y53.395 E14.09278
G1 X51.231 Y52.811 E14.11297
G1 X51.64 Y52.27 E14.13316
G1 X52.111 Y51.782 E14.15336
G0 F1200 X52.135 Y52.466
G1 F600 X52.601 Y52.016 E14.17266
G1 X53.118 Y51.627 E14.19193
G1 X53.68 Y51.304 E14.21123
G1 X54.277 Y51.053 E14.23052
G1 X54.901 Y50.877 E14.24983
G1 X55.541 Y50.78 E14.26911
G1 X56.009 Y50.759 E14.28306
G1 X105.991 Y50.76 E15.7717
G1 X106.638 Y50.8 E15.791
G1 X107.274 Y50.919 E15.81027
G1 X107.891 Y51.116 E15.82956
G1 X108.48 Y51.387 E15.84887
G1 X109.03 Y51.729 E15.86816
G1 X109.534 Y52.136 E15.88746
G1 X109.984 Y52.602 E15.90675
G1 X110.374 Y53.119 E15.92604
G1 X110.696 Y53.681 E15.94533
G1 X110.947 Y54.278 E15.96462
G1 X111.123 Y54.902 E15.98393
G1 X111.22 Y55.542 E16.00321
G1 X111.241 Y56.01 E16.01716
G1 X111.241 Y105.991 E17.50576
G1 X111.201 Y106.638 E17.52507
G1 X111.082 Y107.274 E17.54434
G1 X110.885 Y107.891 E17.56363
G1 X110.614 Y108.48 E17.58294
G1 X110.272 Y109.03 E17.60223
G1 X109.865 Y109.534 E17.62153
G1 X109.399 Y109.984 E17.64082
G1 X108.882 Y110.373 E17.66009
G1 X108.32 Y110.696 E17.6794
G1 X107.723 Y110.947 E17.69868
G1 X107.099 Y111.123 E17.71799
G1 X106.459 Y111.22 E17.73727
G1 X105.991 Y111.241 E17.75123
G1 X56.009 Y111.241 E19.23986
G1 X55.362 Y111.201 E19.25916
G1 X54.726 Y111.082 E19.27844
G1 X54.109 Y110.885 E19.29773
G1 X53.52 Y110.614 E19.31704
G1 X52.97 Y110.272 E19.33633
G1 X52.466 Y109.865 E19.35562
G1 X52.016 Y109.399 E19.37491
G1 X51.627 Y108.882 E19.39418
G1 X51.304 Y108.32 E19.41349
G1 X51.053 Y107.723 E19.43278
G1 X50.877 Y107.099 E19.45209
G1 X50.78 Y106.459 E19.47137
G1 X50.759 Y105.991 E19.48532
G1 X50.759 Y56.009 E20.97395
G1 X50.799 Y55.362 E20.99326
G1 X50.918 Y54.726 E21.01253
G1 X51.115 Y54.109 E21.03182
G1 X51.386 Y53.52 E21.05113
G1 X51.728 Y52.97 E21.07042
G1 X52.135 Y52.466 E21.08971
G1 F600 E20.08971
;MESH:
G0 F1200 X55.335 Y56.764
G0 X56.764 Y56.764
G0 X76.345 Y74.033
G0 X76.4 Y74.116
;TYPE:WALL-INNER
G1 F600 E21.08971
G1 X75.146 Y75.146 E21.13805
G1 X74.116 Y76.4 E21.18638
G1 X73.352 Y77.832 E21.23472
G1 X72.881 Y79.385 E21.28305
G1 X72.722 Y81 E21.33138
G1 X72.881 Y82.615 E21.37972
G1 X73.352 Y84.168 E21.42805
G1 X74.116 Y85.6 E21.47639
G1 X75.146 Y86.854 E21.52472
G1 X76.4 Y87.884 E21.57306
G1 X77.832 Y88.648 E21.6214
G1 X79.385 Y89.119 E21.66973
G1 X81 Y89.278 E21.71806
G1 X82.615 Y89.119 E21.7664
G1 X84.168 Y88.648 E21.81473
G1 X85.6 Y87.884 E21.86307
G1 X86.854 Y86.854 E21.9114
G1 X87.884 Y85.6 E21.95973
G1 X88.648 Y84.168 E22.00807
G1 X89.119 Y82.615 E22.05641
G1 X89.278 Y81 E22.10474
G1 X89.119 Y79.385 E22.15307
G1 X88.648 Y77.832 E22.20141
G1 X87.884 Y76.4 E22.24975
G1 X86.854 Y75.146 E22.29808
G1 X85.6 Y74.116 E22.34641
G1 X84.168 Y73.352 E22.39475
G1 X82.615 Y72.881 E22.44308
G1 X81 Y72.722 E22.49142
G1 X79.385 Y72.881 E22.53975
G1 X77.832 Y73.352 E22.58808
G1 X76.4 Y74.116 E22.63642
G0 F1200 X76.345 Y74.033
G0 X77.817 Y73.316
G0 X79.378 Y72.842
G0 X81 Y72.682
G0 X82.622 Y72.842
G0 X84.183 Y73.316
G0 X85.622 Y74.083
G0 X86.882 Y75.118
G0 X87.813 Y76.252
G0 X105.18 Y105.18
G0 X105.25 Y105.25
G1 F600 X56.75 Y105.25 E24.08092
G1 X56.75 Y56.75 E25.52541
G1 X105.25 Y56.75 E26.96991
G1 X105.25 Y105.25 E28.4144
G0 F1200 X105.75 Y105.75
;TYPE:WALL-OUTER
G1 F600 X56.25 Y105.75 E29.88868
G1 X56.25 Y56.25 E31.36296
G1 X105.75 Y56.25 E32.83723
G1 X105.75 Y105.75 E34.31151
G0 F1200 X105.5 Y105.75
G0 X105.18 Y105.18
G0 X76.378 Y87.917
G0 X75.118 Y86.882
G0 X74.083 Y85.622
G0 X73.316 Y84.183
G0 X72.89 Y82.779
G0 X72.628 Y80.943
G0 X73.224 Y81
G1 F600 X73.374 Y82.517 E34.35691
G1 X73.816 Y83.976 E34.40232
G1 X74.534 Y85.321 E34.44773
G1 X75.501 Y86.499 E34.49312
G1 X76.679 Y87.466 E34.53851
G1 X78.024 Y88.184 E34.58392
G1 X79.483 Y88.626 E34.62932
G1 X81 Y88.776 E34.67472
G1 X82.517 Y88.626 E34.72013
G1 X83.976 Y88.184 E34.76553
G1 X85.321 Y87.466 E34.81094
G1 X86.499 Y86.499 E34.85633
G1 X87.466 Y85.321 E34.90172
G1 X88.184 Y83.976 E34.94713
G1 X88.626 Y82.517 E34.99254
G1 X88.776 Y81 E35.03794
G1 X88.626 Y79.483 E35.08334
G1 X88.184 Y78.024 E35.12874
G1 X87.466 Y76.679 E35.17415
G1 X86.499 Y75.501 E35.21954
G1 X85.321 Y74.534 E35.26494
G1 X83.976 Y73.816 E35.31035
G1 X82.517 Y73.374 E35.35575
G1 X81 Y73.224 E35.40115
G1 X79.483 Y73.374 E35.44655
G1 X78.024 Y73.816 E35.49196
G1 X76.679 Y74.534 E35.53737
G1 X75.501 Y75.501 E35.58276
G1 X74.534 Y76.679 E35.62815
G1 X73.816 Y78.024 E35.67356
G1 X73.374 Y79.483 E35.71896
G1 X73.224 Y81 E35.76437
G0 F1200 X73.248 Y81.248
G0 X72.652 Y81.305
G0 X72.23 Y81
;TYPE:SKIN
G1 F600 X72.398 Y82.711 E35.81557
G1 X72.897 Y84.356 E35.86677
G1 X73.706 Y85.874 E35.918
G1 X74.797 Y87.203 E35.96921
G1 X76.126 Y88.294 E36.02042
G1 X77.644 Y89.103 E36.07165
G1 X79.289 Y89.602 E36.12285
G1 X81 Y89.77 E36.17405
G1 X82.711 Y89.602 E36.22526
G1 X84.356 Y89.103 E36.27646
G1 X85.874 Y88.294 E36.32769
G1 X87.203 Y87.203 E36.3789
G1 X88.294 Y85.874 E36.43011
G1 X89.103 Y84.356 E36.48134
G1 X89.602 Y82.711 E36.53254
G1 X89.77 Y81 E36.58374
G1 X89.602 Y79.289 E36.63495
G1 X89.103 Y77.644 E36.68615
G1 X88.294 Y76.126 E36.73738
G1 X87.203 Y74.797 E36.78859
G1 X85.874 Y73.706 E36.8398
G1 X84.356 Y72.897 E36.89103
G1 X82.711 Y72.398 E36.94223
G1 X81 Y72.23 E36.99343
G1 X79.289 Y72.398 E37.04464
G1 X77.644 Y72.897 E37.09584
G1 X76.126 Y73.706 E37.14707
G1 X74.797 Y74.797 E37.19828
G1 X73.706 Y76.126 E37.24949
G1 X72.897 Y77.644 E37.30072
G1 X72.398 Y79.289 E37.35192
G1 X72.23 Y81 E37.40312
G0 F1200 X57.24 Y104.76
G1 F600 X57.24 Y57.24 E38.81843
G1 X104.76 Y57.24 E40.23374
G1 X104.76 Y104.76 E41.64904
G1 X57.24 Y104.76 E43.06435
G0 F1200 X57.865 Y104.534
G1 F600 X57.464 Y104.133 E43.08124
G0 F1200 X57.464 Y103.426
G1 F600 X58.572 Y104.534 E43.12791
G0 F1200 X59.279 Y104.534
G1 F600 X57.464 Y102.719 E43.20435
G0 F1200 X57.464 Y102.012
G1 F600 X59.986 Y104.534 E43.31058
G0 F1200 X60.693 Y104.534
G1 F600 X57.464 Y101.305 E43.44659
G0 F1200 X57.464 Y100.597
G1 F600 X61.4 Y104.534 E43.61239
G0 F1200 X62.108 Y104.534
G1 F600 X57.464 Y99.89 E43.808
G0 F1200 X57.464 Y99.183
G1 F600 X62.815 Y104.534 E44.03338
G0 F1200 X63.522 Y104.534
G1 F600 X57.464 Y98.476 E44.28855
G0 F1200 X57.464 Y97.769
G1 F600 X64.229 Y104.534 E44.57349
G0 F1200 X64.936 Y104.534
G1 F600 X57.464 Y97.062 E44.88821
G0 F1200 X57.464 Y96.355
G1 F600 X65.643 Y104.534 E45.23271
G0 F1200 X66.35 Y104.534
G1 F600 X57.464 Y95.648 E45.60699
G0 F1200 X57.464 Y94.941
G1 F600 X67.057 Y104.534 E46.01105
G0 F1200 X67.764 Y104.534
G1 F600 X57.464 Y94.233 E46.4449
G0 F1200 X57.464 Y93.526
G1 F600 X68.471 Y104.534 E46.90854
G0 F1200 X69.179 Y104.534
G1 F600 X57.464 Y92.819 E47.40198
G0 F1200 X57.464 Y92.112
G1 F600 X69.886 Y104.534 E47.92519
G0 F1200 X70.593 Y104.534
G1 F600 X57.464 Y91.405 E48.47819
G0 F1200 X57.464 Y90.698
G1 F600 X71.3 Y104.534 E49.06096
G0 F1200 X72.007 Y104.534
G1 F600 X57.464 Y89.991 E49.67351
G0 F1200 X57.464 Y89.284
G1 F600 X72.714 Y104.534 E50.31584
G0 F1200 X73.421 Y104.534
G1 F600 X57.464 Y88.577 E50.98795
G0 F1200 X57.464 Y87.87
G1 F600 X74.128 Y104.534 E51.68984
G0 F1200 X74.835 Y104.534
G1 F600 X57.464 Y87.162 E52.42153
G0 F1200 X57.464 Y86.455
G1 F600 X75.543 Y104.534 E53.18302
G0 F1200 X76.25 Y104.534
G1 F600 X57.464 Y85.748 E53.97429
G0 F1200 X57.464 Y85.041
G1 F600 X76.957 Y104.534 E54.79533
G0 F1200 X77.664 Y104.534
G1 F600 X57.464 Y84.334 E55.64616
G0 F1200 X57.464 Y83.627
G1 F600 X78.371 Y104.534 E56.52676
G0 F1200 X79.078 Y104.534
G1 F600 X57.464 Y82.92 E57.43714
G0 F1200 X57.464 Y82.213
G1 F600 X79.785 Y104.534 E58.37731
G0 F1200 X80.492 Y104.534
G1 F600 X57.464 Y81.506 E59.34725
G0 F1200 X57.464 Y80.798
G1 F600 X81.199 Y104.534 E60.34699
G0 F1200 X81.907 Y104.534
G1 F600 X57.464 Y80.091 E61.37653
G0 F1200 X57.464 Y79.384
G1 F600 X82.614 Y104.534 E62.43585
G0 F1200 X83.321 Y104.534
G1 F600 X57.464 Y78.677 E63.52495
G0 F1200 X57.464 Y77.97
G1 F600 X84.028 Y104.534 E64.64382
G0 F1200 X84.735 Y104.534
G1 F600 X57.464 Y77.263 E65.79248
G0 F1200 X57.464 Y76.556
G1 F600 X85.442 Y104.534 E66.97092
G0 F1200 X86.149 Y104.534
G1 F600 X57.464 Y75.849 E68.17913
G0 F1200 X57.464 Y75.142
G1 F600 X86.856 Y104.534 E69.41712
G0 F1200 X87.563 Y104.534
G1 F600 X57.464 Y74.435 E70.68489
G0 F1200 X57.464 Y73.727
G1 F600 X88.27 Y104.534 E71.98247
G0 F1200 X88.978 Y104.534
G1 F600 X57.464 Y73.02 E73.30984
G0 F1200 X57.464 Y72.313
G1 F600 X89.685 Y104.534 E74.66699
G0 F1200 X90.392 Y104.534
G1 F600 X57.464 Y71.606 E76.05392
G0 F1200 X57.464 Y70.899
G1 F600 X91.099 Y104.534 E77.47063
G0 F1200 X91.806 Y104.534
G1 F600 X57.464 Y70.192 E78.91711
G0 F1200 X57.464 Y69.485
G1 F600 X72.993 Y85.014 E79.5712
G1 X73.081 Y85.102
G0 F1200 X72.497 Y83.811
G1 F600 X57.464 Y68.778 E80.20439
G0 F1200 X57.464 Y68.071
G1 F600 X72.19 Y82.797 E80.82465
G0 F1200 X72.102 Y82.002
G1 F600 X57.464 Y67.363 E81.44122
G0 F1200 X57.464 Y66.656
G1 F600 X72.025 Y81.218 E82.05455
G0 F1200 X72.049 Y80.535
G1 F600 X57.464 Y65.949 E82.66889
G0 F1200 X57.464 Y65.242
G1 F600 X72.113 Y79.891 E83.28591
G0 F1200 X72.177 Y79.248
G1 F600 X57.464 Y64.535 E83.90562
G0 F1200 X57.464 Y63.828
G1 F600 X72.34 Y78.704 E84.5322
G0 F1200 X72.505 Y78.162
G1 F600 X57.464 Y63.121 E85.16573
G0 F1200 X57.464 Y62.414
G1 F600 X72.669 Y77.619 E85.80616
G0 F1200 X72.906 Y77.148
G1 F600 X57.464 Y61.707 E86.45656
G0 F1200 X57.464 Y60.999
G1 F600 X73.152 Y76.687 E87.11734
G0 F1200 X73.398 Y76.226
G1 F600 X57.464 Y60.292 E87.78848
G0 F1200 X57.464 Y59.585
G1 F600 X73.681 Y75.802 E88.47154
G0 F1200 X73.999 Y75.413
G1 F600 X57.464 Y58.878 E89.168
G0 F1200 X57.464 Y58.171
G1 F600 X74.318 Y75.025 E89.87789
G0 F1200 X74.636 Y74.636
G1 F600 X57.464 Y57.464 E90.60118
G0 F1200 X58.172 Y57.465
G1 F600 X75.024 Y74.317 E91.31098
G0 F1200 X75.412 Y73.998
G1 F600 X58.879 Y57.465 E92.00735
G0 F1200 X59.586 Y57.465
G1 F600 X75.801 Y73.68 E92.69033
G0 F1200 X76.226 Y73.397
G1 F600 X60.293 Y57.465 E93.36141
G0 F1200 X61 Y57.465
G1 F600 X76.687 Y73.151 E94.02212
G0 F1200 X77.148 Y72.905
G1 F600 X61.707 Y57.465 E94.67248
G0 F1200 X62.414 Y57.465
G1 F600 X77.618 Y72.668 E95.31285
G0 F1200 X78.161 Y72.504
G1 F600 X63.122 Y57.465 E95.9463
G0 F1200 X63.829 Y57.465
G1 F600 X78.703 Y72.339 E96.57279
G0 F1200 X79.247 Y72.176
G1 F600 X64.536 Y57.465 E97.19242
G0 F1200 X65.243 Y57.465
G1 F600 X79.891 Y72.112 E97.80937
G0 F1200 X80.534 Y72.049
